X: 75
T:La Riviere
M:3/4
L:1/4
C:Patrick Bouffard
R:Waltz
Z:Steve Mansfield
K:G
G3- | G2A | B3- | B2c | d3- | dgf | e2d- | ded | c2A | ABc |
B>c d/B/ | G2B | A2D- | DEF |1 A3 | AGF :|2 G3 | GFG ||
| E>FG | ABc | B2G- | GFG | A2D- | DED | B2G | GFG |
E>FG | ABc | B2G- | GFG | A2D- | DEF ||
<end>
<start>
